src/components/00-materials/images-raw/Fire House.svg

<svg width="96" height="96" viewBox="0 0 96 96" fill="none" xmlns="http://www.w3.org/2000/svg">
<path d="M62 85C59 83 56 79 56 71C55.9431 64.6187 58.1106 58.4168 62.13 53.46C62.13 53.46 61.66 69.52 66 71C70 72 68 61 68 61C68 61 75 64.28 75 72C74.84 76.72 74 81 70 85C81 85 87 70 87 57C87 57 83 65 81 63C79 61 83 57 83 51C82.8507 45.8784 80.8341 40.9882 77.33 37.25C79 46.45 69 53 69 53C69 53 74 34 61.54 24C64 40 55.34 40.06 53.76 49.47C53.76 49.47 49.51 46.08 48.92 38.85C39 50 52 72 48 70C46 69 44 67 42 63C41.06 80 58 85 62 85Z" stroke="#00008F" stroke-width="2" stroke-linecap="round" stroke-linejoin="round"/>
<path d="M12.64 40.3899V74.9999H44.88" stroke="#00008F" stroke-width="2" stroke-linecap="round" stroke-linejoin="round"/>
<path d="M30.82 74.9999V48.5799H44.61M60.2 36.5599L39.55 20.9399C39.3925 20.8183 39.199 20.7523 39 20.7523C38.801 20.7523 38.6075 20.8183 38.45 20.9399L13.12 40.0999C12.7386 40.3883 12.2843 40.5646 11.8083 40.6089C11.3322 40.6532 10.8532 40.5639 10.4251 40.3509C9.99706 40.1379 9.6369 39.8097 9.38513 39.4032C9.13337 38.9967 9 38.5281 9 38.0499C9.00669 37.6631 9.09999 37.2826 9.27305 36.9365C9.4461 36.5904 9.6945 36.2874 10 36.0499L36.8 15.7399C37.4322 15.2582 38.2051 14.9973 39 14.9973C39.7949 14.9973 40.5678 15.2582 41.2 15.7399L61.57 31.1499L60.2 36.5599Z" stroke="#00008F" stroke-width="2" stroke-linecap="round" stroke-linejoin="round"/>
<path d="M39 39.5898C41.0103 39.5898 42.64 37.9646 42.64 35.9598C42.64 33.955 41.0103 32.3298 39 32.3298C36.9897 32.3298 35.36 33.955 35.36 35.9598C35.36 37.9646 36.9897 39.5898 39 39.5898Z" stroke="#00008F" stroke-width="2" stroke-linecap="round" stroke-linejoin="round"/>
</svg>

<svg width="96" height="96" viewBox="0 0 96 96" fill="none" xmlns="http://www.w3.org/2000/svg"><path d="M62 85c-3-2-6-6-6-14a27.46 27.46 0 016.13-17.54S61.66 69.52 66 71c4 1 2-10 2-10s7 3.28 7 11c-.16 4.72-1 9-5 13 11 0 17-15 17-28 0 0-4 8-6 6s2-6 2-12a21 21 0 00-5.67-13.75C79 46.45 69 53 69 53s5-19-7.46-29c2.46 16-6.2 16.06-7.78 25.47 0 0-4.25-3.39-4.84-10.62C39 50 52 72 48 70c-2-1-4-3-6-7-.94 17 16 22 20 22z" stroke="#00008F" stroke-width="2" stroke-linecap="round" stroke-linejoin="round"/><path d="M12.64 40.39V75h32.24" stroke="#00008F" stroke-width="2" stroke-linecap="round" stroke-linejoin="round"/><path d="M30.82 75V48.58h13.79M60.2 36.56L39.55 20.94a.9.9 0 00-1.1 0L13.12 40.1A2.57 2.57 0 019 38.05a2.59 2.59 0 011-2l26.8-20.31a3.63 3.63 0 014.4 0l20.37 15.41-1.37 5.41z" stroke="#00008F" stroke-width="2" stroke-linecap="round" stroke-linejoin="round"/><path d="M39 39.59c2.01 0 3.64-1.625 3.64-3.63s-1.63-3.63-3.64-3.63a3.635 3.635 0 00-3.64 3.63c0 2.005 1.63 3.63 3.64 3.63z" stroke="#00008F" stroke-width="2" stroke-linecap="round" stroke-linejoin="round"/></svg>
